X: 639
T: Bumper Squire Jones
C:O'Carolan
B:O'Neill's 639
Z: 1997 by John Chambers <jc@trillian.mit.edu>
N:"Spirited"
M:6/8
L:1/8
K:D
A \
| {G}FDD D2E | {G}FDD D2E | (F/G/A).F (G/A/B).A | BEE G2A |
| FDD d2e | e(g/f/)(e/d/) edc | dBe cAc | dDD D2 ||
a \
| a(f/g/)(a/f/) d(f/g/)(a/f/) | b(g/a/)(b/g/) e(g/a/)(b/g/) | afd (e/f/g).e | cAA A2g |
| (f/g/a).f geg | a(f/g/)(a/f/) geg | fed cBc | dDD D2 |]


